app/assets/icons/circle-check.svg

<svg height="1em" viewBox="0 0 14 14" width="1em" xmlns="http://www.w3.org/2000/svg">
  <path
    d="m7 .5c-1.28558 0-2.54228.381218-3.6112 1.09545-1.06892.71423-1.90204 1.72939-2.394014 2.91711-.49197 1.18772-.620691 2.49465-.369887 3.75553.250804 1.26087.869871 2.41911 1.778911 3.32811s2.06723 1.5281 3.32811 1.7789c1.26087.2508 2.56781.1221 3.75552-.3699 1.18776-.492 2.20286-1.3251 2.91716-2.394.7142-1.06891 1.0954-2.32562 1.0954-3.6112-.0018-1.72335-.6872-3.37559-1.9058-4.59418-1.2186-1.2186-2.87085-1.904-4.5942-1.90582zm2.85375 5.35375-3.5 3.5c-.04643.04649-.10158.08337-.16228.10853s-.12576.03811-.19147.03811c-.0657 0-.13077-.01295-.19147-.03811s-.11584-.06204-.16228-.10853l-1.5-1.5c-.09382-.09382-.14653-.22107-.14653-.35375s.05271-.25993.14653-.35375.22107-.14653.35375-.14653.25993.05271.35375.14653l1.14625 1.14688 3.14625-3.14688c.04646-.04646.10161-.08331.1623-.10845.0607-.02514.12576-.03808.19145-.03808.0657 0 .13075.01294.19145.03808s.11585.06199.1623.10845c.04646.04645.08331.10161.10845.1623.02514.0607.0381.12575.0381.19145s-.01296.13075-.0381.19145c-.02514.06069-.06199.11585-.10845.1623z"
    fill="currentColor" />
</svg>

<svg width="1em" height="1em" viewBox="0 0 14 14" fill="none" xmlns="http://www.w3.org/2000/svg">
  <path
    d="M7 0.5C5.71442 0.5 4.45772 0.881218 3.3888 1.59545C2.31988 2.30968 1.48676 3.32484 0.994786 4.51256C0.502816 5.70028 0.374095 7.00721 0.624899 8.26809C0.875703 9.52896 1.49477 10.6872 2.40381 11.5962C3.31285 12.5052 4.47104 13.1243 5.73192 13.3751C6.99279 13.6259 8.29973 13.4972 9.48744 13.0052C10.6752 12.5132 11.6903 11.6801 12.4046 10.6112C13.1188 9.54229 13.5 8.28558 13.5 7C13.4982 5.27665 12.8128 3.62441 11.5942 2.40582C10.3756 1.18722 8.72335 0.50182 7 0.5ZM9.85375 5.85375L6.35375 9.35375C6.30732 9.40024 6.25217 9.43712 6.19147 9.46228C6.13077 9.48744 6.06571 9.50039 6 9.50039C5.9343 9.50039 5.86923 9.48744 5.80853 9.46228C5.74783 9.43712 5.69269 9.40024 5.64625 9.35375L4.14625 7.85375C4.05243 7.75993 3.99972 7.63268 3.99972 7.5C3.99972 7.36732 4.05243 7.24007 4.14625 7.14625C4.24007 7.05243 4.36732 6.99972 4.5 6.99972C4.63268 6.99972 4.75993 7.05243 4.85375 7.14625L6 8.29313L9.14625 5.14625C9.19271 5.09979 9.24786 5.06294 9.30855 5.0378C9.36925 5.01266 9.43431 4.99972 9.5 4.99972C9.5657 4.99972 9.63075 5.01266 9.69145 5.0378C9.75215 5.06294 9.8073 5.09979 9.85375 5.14625C9.90021 5.1927 9.93706 5.24786 9.9622 5.30855C9.98734 5.36925 10.0003 5.4343 10.0003 5.5C10.0003 5.5657 9.98734 5.63075 9.9622 5.69145C9.93706 5.75214 9.90021 5.8073 9.85375 5.85375Z"
    fill="currentColor" />
</svg>
